image-edit.svg

<svg fill="currentColor" viewBox="0 0 24 24"><path d="m22.7 14.3-1 1-2-2 1-1c.1-.1.2-.2.4-.2.1 0 .3.1.4.2l1.3 1.3c.1.2.1.5-.1.7M13 19.9V22h2.1l6.1-6.1-2-2zM21 5c0-1.1-.9-2-2-2H5c-1.1 0-2 .9-2 2v14c0 1.1.9 2 2 2h6v-1.9l1.1-1.1H5l3.5-4.5 2.5 3 3.5-4.5 1.6 2.1 4.9-5z"/></svg>

<svg  viewBox="0 0 24 24" fill="currentColor"><path  d="M22.7 14.3L21.7 15.3L19.7 13.3L20.7 12.3C20.8 12.2 20.9 12.1 21.1 12.1C21.2 12.1 21.4 12.2 21.5 12.3L22.8 13.6C22.9 13.8 22.9 14.1 22.7 14.3M13 19.9V22H15.1L21.2 15.9L19.2 13.9L13 19.9M21 5C21 3.9 20.1 3 19 3H5C3.9 3 3 3.9 3 5V19C3 20.1 3.9 21 5 21H11V19.1L12.1 18H5L8.5 13.5L11 16.5L14.5 12L16.1 14.1L21 9.1V5Z"/></svg>
